public/_brand/React Router Brand Assets/React Router Lockup/One Color/Dark.svg

<svg width="1082" height="174" viewBox="0 0 1082 174" fill="none" xmlns="http://www.w3.org/2000/svg">
<path d="M232.527 86.5067C232.527 94.4711 229.297 101.68 224.067 106.893C218.837 112.113 211.614 115.342 203.634 115.342C195.654 115.342 188.43 118.566 183.206 123.785C177.977 129.005 174.741 136.213 174.741 144.178C174.741 152.142 171.51 159.351 166.281 164.565C161.051 169.784 153.828 173.013 145.847 173.013C137.867 173.013 130.644 169.784 125.42 164.565C120.19 159.351 116.954 152.142 116.954 144.178C116.954 136.213 120.19 129.005 125.42 123.785C130.644 118.566 137.867 115.342 145.847 115.342C153.828 115.342 161.051 112.113 166.281 106.893C171.51 101.68 174.741 94.4711 174.741 86.5067C174.741 70.5779 161.808 57.6711 145.847 57.6711C137.867 57.6711 130.644 54.4415 125.42 49.2223C120.19 44.0088 116.954 36.7999 116.954 28.8356C116.954 20.8712 120.19 13.6623 125.42 8.44305C130.644 3.22382 137.867 0 145.847 0C161.808 0 174.741 12.9068 174.741 28.8356C174.741 36.7999 177.977 44.0088 183.206 49.2223C188.43 54.4415 195.654 57.6711 203.634 57.6711C219.594 57.6711 232.527 70.5779 232.527 86.5067Z" fill="white"/>
<path d="M116.954 86.5065C116.954 70.581 104.018 57.6709 88.061 57.6709C72.1037 57.6709 59.1677 70.581 59.1677 86.5065C59.1677 102.432 72.1037 115.342 88.061 115.342C104.018 115.342 116.954 102.432 116.954 86.5065Z" fill="white"/>
<path d="M59.1676 144.177C59.1676 128.252 46.2316 115.342 30.2743 115.342C14.317 115.342 1.3811 128.252 1.3811 144.177C1.3811 160.103 14.317 173.013 30.2743 173.013C46.2316 173.013 59.1676 160.103 59.1676 144.177Z" fill="white"/>
<path d="M290.314 144.177C290.314 128.252 277.378 115.342 261.42 115.342C245.463 115.342 232.527 128.252 232.527 144.177C232.527 160.103 245.463 173.013 261.42 173.013C277.378 173.013 290.314 160.103 290.314 144.177Z" fill="white"/>
<g clip-path="url(#clip0_202_2152)">
<path d="M563.482 172.754C525.388 172.754 499.363 146.997 499.363 109.975C499.363 72.9523 525.388 47.1953 563.482 47.1953C601.576 47.1953 627.869 73.2203 627.869 109.975C627.869 146.729 601.576 172.754 563.482 172.754ZM563.482 143.513C580.385 143.513 588.703 129.825 588.703 109.975C588.703 90.1237 580.385 76.4357 563.482 76.4357C546.579 76.4357 538.529 90.1237 538.529 109.975C538.529 129.825 546.311 143.513 563.482 143.513Z" fill="white"/>
<path d="M834.64 140.623C825.217 140.623 820.237 136.191 820.237 125.662V74.4051H852.928V47.286H820.237V0.662109H792.75L787.1 25.7046C784.343 35.9873 781.82 42.3289 774.897 45.589C774.105 45.9574 772.129 46.5045 770.409 46.8952C769.014 47.2079 767.596 47.3642 766.167 47.3642H753.338V47.4311H735.832C724.578 47.4311 715.445 56.5527 715.445 67.8179V111.059C715.445 130.106 708.199 142.175 693.719 142.175C679.238 142.175 673.868 132.785 673.868 115.882V47.4311H635.249V125.272C635.249 150.761 645.442 172.755 677.63 172.755C692.915 172.755 704.895 166.737 712.096 156.689C713.145 155.227 715.445 155.997 715.445 157.783V169.529H754.332V83.3481C754.332 78.4021 758.34 74.394 763.286 74.394H780.882V136.459C780.882 164.17 798.89 172.755 818.842 172.755C834.908 172.755 845.436 168.881 854.58 161.948V135.632C847.1 138.96 840.725 140.623 834.629 140.623H834.64Z" fill="white"/>
<path d="M982.561 130.372C976.387 157.469 955.197 172.765 924.07 172.765C886.243 172.765 859.415 149.687 859.415 111.861C859.415 74.0349 886.779 47.2061 923.266 47.2061C962.699 47.2061 983.365 74.3029 983.365 106.77V113.391H897.509C895.555 135.218 910.382 143.524 925.409 143.524C938.829 143.524 947.136 138.422 951.434 127.425L982.561 130.372ZM946.075 94.444C945.271 82.6429 937.757 75.3635 922.998 75.3635C907.434 75.3635 900.188 81.8279 898.045 94.444H946.064H946.075Z" fill="white"/>
<path d="M1077.24 85.2554C1071.06 81.772 1065.17 80.4211 1056.85 80.4211C1040.75 80.4211 1030.02 89.5427 1030.02 110.197V169.527H991.393V47.4293H1030.02V63.8303C1030.02 64.9691 1031.54 65.3264 1032.05 64.3104C1037.68 53.0787 1048.91 44.2139 1063.03 44.2139C1070.27 44.2139 1076.45 46.3575 1079.66 49.0482L1077.25 85.2666L1077.24 85.2554Z" fill="white"/>
<path d="M548.32 31.0414V23.5052H523.457V31.0414H516.378V1.74512H543.14C554.562 1.74512 555.365 2.45966 555.365 12.6307C555.365 16.918 554.472 18.0679 552.329 19.1621L550.408 20.1446L552.317 21.1494C554.595 22.344 555.365 22.746 555.365 29.5341V31.0414H548.332H548.32ZM523.457 17.867H548.32V7.39447H523.457V17.8558V17.867Z" fill="white"/>
<path d="M579.493 1.74512H611.826V7.4168H581.067V14.0152H611.011V18.7937H581.067V25.4032H611.837V31.0079L579.504 31.0414C576.344 31.0414 573.787 28.4846 573.787 25.3362V7.46146C573.787 4.313 576.344 1.75628 579.493 1.75628V1.74512Z" fill="white"/>
<path d="M656.562 31.0414L654.151 25.8498H634.746L632.335 31.0414H625.58L638.006 4.25718C638.71 2.72761 640.262 1.74512 641.936 1.74512H646.927C648.613 1.74512 650.154 2.72761 650.857 4.25718L663.283 31.0414H656.529H656.562ZM644.46 7.57311C643.712 7.57311 643.053 7.99736 642.729 8.67841L636.968 21.0824H651.94L646.19 8.67841C645.878 7.99736 645.208 7.57311 644.46 7.57311Z" fill="white"/>
<path d="M695.862 31.9222C677.05 31.9222 676.313 31.9222 676.313 16.392C676.313 0.861882 677.05 0.873047 695.862 0.873047C712.721 0.873047 714.764 1.57642 715.244 10.0393H708.333V6.5224H683.168V26.2728H708.333V22.7782H715.244C714.775 31.2188 712.721 31.9222 695.862 31.9222Z" fill="white"/>
<path d="M746.282 31.0414V6.53479H730.16V1.74512H769.147V6.53479H753.025V31.0414H746.282Z" fill="white"/>
<path d="M455.419 169.326C451.935 164.771 449.792 154.321 448.452 136.904C447.112 117.611 438.806 113.324 423.532 113.324H393.254V169.337H348.494V0.493164H433.715C477.391 0.493164 499.106 21.1256 499.106 54.095C499.106 78.7467 483.833 94.8239 463.201 97.5146C480.618 100.998 490.8 110.912 492.675 130.473C495.087 155.661 495.891 163.163 501.518 169.326H455.419ZM425.676 78.2108C444.969 78.2108 454.615 73.3877 454.615 57.8464C454.615 44.1807 444.969 36.946 425.676 36.946H393.254V78.222H425.676V78.2108Z" fill="white"/>
</g>
<defs>
<clipPath id="clip0_202_2152">
<rect width="731.156" height="172.261" fill="white" transform="translate(348.494 0.493164)"/>
</clipPath>
</defs>
</svg>

<svg width="1082" height="174" fill="none" xmlns="http://www.w3.org/2000/svg"><path d="M232.527 86.507c0 7.964-3.23 15.173-8.46 20.386a28.833 28.833 0 0 1-20.433 8.449 28.81 28.81 0 0 0-20.428 8.443c-5.229 5.22-8.465 12.428-8.465 20.393a28.697 28.697 0 0 1-8.46 20.387 28.837 28.837 0 0 1-20.434 8.448 28.811 28.811 0 0 1-20.427-8.448c-5.23-5.214-8.466-12.423-8.466-20.387 0-7.965 3.236-15.173 8.466-20.393a28.807 28.807 0 0 1 20.427-8.443 28.833 28.833 0 0 0 20.434-8.449 28.692 28.692 0 0 0 8.46-20.386c0-15.93-12.933-28.836-28.894-28.836-7.98 0-15.203-3.23-20.427-8.449-5.23-5.213-8.466-12.422-8.466-20.386 0-7.965 3.236-15.174 8.466-20.393A28.806 28.806 0 0 1 145.847 0c15.961 0 28.894 12.907 28.894 28.836 0 7.964 3.236 15.173 8.465 20.386a28.814 28.814 0 0 0 20.428 8.45c15.96 0 28.893 12.906 28.893 28.835Z" fill="#fff"/><path d="M116.954 86.507c0-15.926-12.936-28.836-28.893-28.836S59.168 70.58 59.168 86.507c0 15.925 12.936 28.835 28.893 28.835s28.893-12.91 28.893-28.835Zm-57.786 57.67c0-15.925-12.936-28.835-28.894-28.835-15.957 0-28.893 12.91-28.893 28.835 0 15.926 12.936 28.836 28.893 28.836 15.958 0 28.894-12.91 28.894-28.836Zm231.146 0c0-15.925-12.936-28.835-28.894-28.835-15.957 0-28.893 12.91-28.893 28.835 0 15.926 12.936 28.836 28.893 28.836 15.958 0 28.894-12.91 28.894-28.836Z" fill="#fff"/><g clip-path="url(#a)" fill="#fff"><path d="M563.482 172.754c-38.094 0-64.119-25.757-64.119-62.779 0-37.023 26.025-62.78 64.119-62.78s64.387 26.025 64.387 62.78c0 36.754-26.293 62.779-64.387 62.779Zm0-29.241c16.903 0 25.221-13.688 25.221-33.538 0-19.851-8.318-33.54-25.221-33.54s-24.953 13.689-24.953 33.54c0 19.85 7.782 33.538 24.953 33.538Zm271.158-2.89c-9.423 0-14.403-4.432-14.403-14.961V74.405h32.691V47.286h-32.691V.662H792.75l-5.65 25.043c-2.757 10.282-5.28 16.624-12.203 19.884-.792.368-2.768.916-4.488 1.306a19.362 19.362 0 0 1-4.242.47h-12.829v.066h-17.506c-11.254 0-20.387 9.122-20.387 20.387v43.241c0 19.047-7.246 31.116-21.726 31.116-14.481 0-19.851-9.39-19.851-26.293v-68.45h-38.619v77.84c0 25.489 10.193 47.483 42.381 47.483 15.285 0 27.265-6.018 34.466-16.066 1.049-1.462 3.349-.692 3.349 1.094v11.746h38.887v-86.18a8.953 8.953 0 0 1 8.954-8.955h17.596v62.065c0 27.711 18.008 36.296 37.96 36.296 16.066 0 26.594-3.874 35.738-10.807v-26.316c-7.48 3.328-13.855 4.991-19.951 4.991h.011Zm147.921-10.251c-6.174 27.097-27.364 42.393-58.491 42.393-37.827 0-64.655-23.078-64.655-60.904 0-37.826 27.364-64.655 63.851-64.655 39.433 0 60.099 27.097 60.099 59.564v6.621h-85.856c-1.954 21.827 12.873 30.133 27.9 30.133 13.42 0 21.727-5.102 26.025-16.099l31.127 2.947Zm-36.486-35.928c-.804-11.801-8.318-19.08-23.077-19.08-15.564 0-22.81 6.464-24.953 19.08h48.03Zm131.165-9.189c-6.18-3.483-12.07-4.834-20.39-4.834-16.1 0-26.83 9.122-26.83 29.776v59.33h-38.627V47.429h38.627V63.83c0 1.14 1.52 1.496 2.03.48 5.63-11.231 16.86-20.096 30.98-20.096 7.24 0 13.42 2.144 16.63 4.834l-2.41 36.219-.01-.012ZM548.32 31.041v-7.536h-24.863v7.536h-7.079V1.745h26.762c11.422 0 12.225.715 12.225 10.886 0 4.287-.893 5.437-3.036 6.531l-1.921.983 1.909 1.004c2.278 1.195 3.048 1.597 3.048 8.385v1.507h-7.045Zm-24.863-13.174h24.863V7.394h-24.863v10.473Zm56.036-16.122h32.333v5.672h-30.759v6.598h29.944v4.779h-29.944v6.61h30.77v5.604l-32.333.033a5.711 5.711 0 0 1-5.717-5.705V7.461a5.709 5.709 0 0 1 5.706-5.705v-.01Zm77.069 29.296-2.411-5.191h-19.405l-2.411 5.191h-6.755l12.426-26.784a4.343 4.343 0 0 1 3.93-2.512h4.991a4.33 4.33 0 0 1 3.93 2.512l12.426 26.784h-6.754.033ZM644.46 7.573c-.748 0-1.407.424-1.731 1.105l-5.761 12.404h14.972l-5.75-12.404a1.889 1.889 0 0 0-1.73-1.105Z"/><path d="M695.862 31.922c-18.812 0-19.549 0-19.549-15.53S677.05.873 695.862.873c16.859 0 18.902.703 19.382 9.166h-6.911V6.522h-25.165v19.75h25.165v-3.494h6.911c-.469 8.44-2.523 9.144-19.382 9.144Zm50.42-.881V6.535H730.16v-4.79h38.987v4.79h-16.122V31.04h-6.743ZM455.419 169.326c-3.484-4.555-5.627-15.005-6.967-32.422-1.34-19.293-9.646-23.58-24.92-23.58h-30.278v56.013h-44.76V.493h85.221c43.676 0 65.391 20.633 65.391 53.602 0 24.652-15.273 40.729-35.905 43.42 17.417 3.483 27.599 13.397 29.474 32.958 2.412 25.188 3.216 32.69 8.843 38.853h-46.099Zm-29.743-91.115c19.293 0 28.939-4.823 28.939-20.365 0-13.665-9.646-20.9-28.939-20.9h-32.422v41.276h32.422v-.011Z"/></g><defs><clipPath id="a"><path fill="#fff" transform="translate(348.494 .493)" d="M0 0h731.156v172.261H0z"/></clipPath></defs></svg>
